X:9
T: Erdő, erdő, kerek erdő...
O: Trunk (Bákó), 1929
M: 3/4
L:1/4
Q: "Parlando"
K:F
(Ac/) c/ A/G/ | G/<F/ A G>z z |
(Ac/) c/ A/G/ | G/F/ A G z |
F/C/ F/(A/A) | G/F/ D HG |
F/C/ F/(A/A) | G/>F/ D D |

